X: 1178
T: İçimde Nice Uzun Yılların...
C: Avni Anıl
O: Turkey
F: http://compmusic.upf.edu/node/140
N: nihavent--sarki--semai--icimde_nice--avni_anil
N: makam= nihavent
N: form= sarki
N: usul= semai = 3/4
M: 3/4
L: 1/16
K: C _B _e  
Q: 1/4=150
%%MIDI tuningsystem comma53
z2e2 d2e2 d2e2  | g4 f4 e4  | z2e2 d2e2 d2e2  | \
w:   |   |   | 
g4 f4 e4  | b4 a4 g4  | 
w:   |   | 
f4 g4 e4  | d12  | d12  | z2e2 d2e2 d2e2  | \
w:   |   |   |   | 
g4 f4 e4  | z2e2 d2e2 d2e2  | g4 f4 e4  | 
w:   |   |   | 
b4 a4 g4  | f4 g4 e4  | d12  | d12  | b12  | b12  | \
w:   |   |   |   |   |   | 
d'4 z8  | b4 a4 g4  | b12  | b12  | d'4 z8  | \
w:   |   |   |   |   | 
b4 a4 g4  | 
w:   | 
g6f2 e4  | e6d2 c4  | B4 A4 B4  | G12  | d4 e8  | d12  | \
w:   |   |   |   |  İ çim  |  de   | 
d4 e8  | d8 z4  | b4 a8  | a12  | f4 a8  | 
w:  SAZ  |   |  ni ce   |   |  u zun   | 
a12  | f4 g4 a4  | f4 g4 e4  | d12  | d2e2 d2e2 c4  | \
w:   |  yıl  |  *  *  la  |  rın   |  SAZ  | 
e8 d4  | g4 f4 e4  | d12  | d12  | z2e2 d2e2 d2e2  | 
w:  öz le  |  mi   |  var    |   |  SAZ  | 
g4 f4 e4  | z2e2 d2e2 d2e2  | g4 f4 e4  | \
w:   |   |   | 
b4 a4 g4  | f4 g4 e4  | d12  | B4 A4 G4  | 
w:   |   |   |   | 
d4 e8  | d12  | d4 e8  | d8 z4  | b4 a8  | a12  | \
w:  İ çim  |  de   |  SAZ  |   |  ni ce   |   | 
f4 a8  | a12  | f4 g4 a4  | f4 g4 e4  | d12  | \
w:  u zun   |   |  yıl  |  *  *  la  |  rın   | 
d2e2 d2e2 c4  | 
w:  SAZ  | 
e8 d4  | g4 f4 e4  | d12  | d12  | z2e2 d2e2 d2e2  | \
w:  öz le  |  mi   |  var    |   |  SAZ  | 
g4 f4 e4  | z2e2 d2e2 d2e2  | 
w:   |   | 
g4 f4 e4  | b4 a4 g4  | f4 g4 e4  | d12  | \
w:   |   |   |   | 
d8 z4  | c'4 b4 a4  | a12  | a12  | a12  | b4 a4 g4  | 
w:   |  Bu  ge  |  ce   |   |  ef  |  kâr  | 
f4 g4 a4  | f4 e4 d2c2  | f12  | f12  | f12  | f12  | \
w:  lı  |   |  yım   |   |  ağ  |  la   | 
g4 f8  | f12  | b8 g4  | a8 f4  | g8 e4  | f8 d4  | 
w:  gi tar   |   |  SAZ  |   |   |   | 
d4 z8  | G4 B4 d4  | d4 z8  | G4 B4 d4  | e4 d4 c4  | \
w:  çal   |  SAZ  |  çal   |  SAZ  |  çal   | 
B4 A4 B4  | G12  | G8 z4  | z2e2 d2e2 d2e2  | 
w:  *  *  gi  |  tar    |   |  SAZ  | 
g4 f4 e4  | z2e2 d2e2 d2e2  | g4 f4 e4  | \
w:   |   |   | 
b4 a4 g4  | f4 g4 e4  | d12  | d12  | c'4 b4 a4  | 
w:   |   |   |   |  Bu  ge  | 
a12  | a12  | a12  | b4 a4 g4  | f4 g4 a4  | f4 e4 d2c2  | f12  | f12  | f12  | f12  | \
w:  ce   |   |  ef  |  kâr  |  lı  |   |  yım   |   |  ağ  |  la   | 
g4 f8  | f12  | b8 g4  | 
w:  gi tar   |   |  SAZ  | 
a8 f4  | g8 e4  | f8 d4  | d4 z8  | G4 B4 d4  | \
w:   |   |   |  çal   |  SAZ  | 
d4 z8  | G4 B4 d4  | e4 d4 c4  | B4 A4 B4  | 
w:  çal   |  SAZ  |  çal   |  *  *  gi  | 
G12  | G8 z4  | z2e2 d2e2 d2e2  | g4 f4 e4  | \
w:  tar    |   |  SAZ  |   | 
z2e2 d2e2 d2e2  | g4 f4 e4  | 
w:   |   | 
b4 a4 g4  | f4 g4 e4  | d12  | d12  | b12  | b12  | \
w:   |   |   |   |   |   | 
d'4 z8  | b4 a4 g4  | b12  | b12  | d'4 z8  | \
w:   |   |   |   |   | 
b4 a4 g4  | 
w:   | 
b4 b2b2 b2b2  | b4 b2b2 b2b2  | b4 b2b2 b2b2  | \
w:   |   |   | 
b4 b4 b4  | b8 b4  | b12  | 
w:   |  Bit me  |  sin   | 
a4 b4 c'4  | b12  | d'4 a8  | b4 g4 f4  | a12  | a12  | \
w:   |   |  bu  sar  |  hoş  |  luk   |   | 
a2g2 a8  | a12  | a2g2 a8  | a12  | a2g2 a8  | 
w:  sür  |   |  sün   |   |   | 
a2g2 a8  | a2g2 a4 b4  | a4 g4 f4  | b4 a4 g4  | \
w:   |   |   |  sa ba  | 
f4 g4 e4  | d12  | d12  | b12  | b12  | d'4 z8  | 
w:  ha  *  ka  |  dar    |   |   |   |   | 
b4 a4 g4  | b12  | b12  | d'4 z8  | b4 a4 g4  | \
w:   |   |   |   |   | 
b4 b2b2 b2b2  | b4 b2b2 b2b2  | b4 b2b2 b2b2  | 
w:   |   |   | 
b4 b4 b4  | b8 b4  | b12  | a4 b4 c'4  | b12  | \
w:   |  Bit me  |  sin   |   |   | 
d'4 a8  | b4 g4 f4  | a12  | a12  | a2g2 a8  | a12  | 
w:  bu  sar  |  hoş  |  luk   |   |  sür  |   | 
a2g2 a8  | a12  | a2g2 a8  | a2g2 a8  | a2g2 a4 b4  | \
w:  sün   |   |   |   |   | 
a4 g4 f4  | b4 a4 g4  | f4 g4 e4  | 
w:   |  sa ba  |  ha  *  ka  | 
d12  | d12  | z2e2 d2e2 d2e2  | g4 f4 e4  | \
w:  dar    |   |  SAZ  |   | 
z2e2 d2e2 d2e2  | g4 f4 e4  | b4 a4 g4  | 
w:   |   |   | 
f4 g4 e4  | d12  | d12  | c'4 b4 a4  | a12  | a12  | a12  | \
w:   |   |   |  Bu  ge  |  ce   |   |  ef  | 
b4 a4 g4  | f4 g4 a4  | f4 e4 d2c2  | 
w:  kâr  |  lı  |   | 
f12  | f12  | f12  | f12  | g4 f8  | f12  | b8 g4  | \
w:  yım   |   |  ağ  |  la   |  gi tar   |   |  SAZ  | 
a8 f4  | g8 e4  | f8 d4  | d4 z8  | G4 B4 d4  | \
w:   |   |   |  çal   |  SAZ  | 
d4 z8  | 
w:  çal   | 
G4 B4 d4  | e4 d4 c4  | B4 A4 B4  | G12  | \
w:  SAZ  |  çal   |  *  *  gi  |  tar    | 
G8 z4  | |


